brandFactory_export/2.Regular/Documento_Archivo PDF_2Regular.svg

<?xml version="1.0" encoding="UTF-8"?>
<svg width="24px" height="24px" viewBox="0 0 24 24" version="1.1" xmlns="http://www.w3.org/2000/svg" xmlns:xlink="http://www.w3.org/1999/xlink">
    <title>2.Regular/Documento_Archivo PDF_2Regular</title>
    <g id="Symbols" stroke="none" stroke-width="1" fill="none" fill-rule="evenodd">
        <g id="2.Regular/Documento_Archivo-PDF_2Regular" fill="#5CB615" fill-rule="nonzero">
            <path d="M16.2117647,0.0302521008 C16.487395,0.0302521008 16.7462185,0.134453782 16.9445378,0.322689076 L23.3042017,6.48067227 C23.4352941,6.60840336 23.512605,6.77310924 23.5663866,6.94453782 C23.6033613,7.03193277 23.6235294,7.12941176 23.6235294,7.2302521 L23.6235294,21.9966387 C23.6235294,22.897479 22.8504202,23.6571429 21.9327731,23.6571429 L7.31428571,23.6571429 C6.41344538,23.6571429 5.62352941,22.8806723 5.62352941,21.9966387 L5.66386555,18.6722689 L2.90420168,18.6722689 C1.30420168,18.6722689 2.19149143e-10,17.3647059 2.19149143e-10,15.7613445 L2.19149143e-10,10.8470588 C2.19149143e-10,9.24369748 1.30420168,7.93613445 2.90420168,7.93613445 L5.62352941,7.93613445 L5.62352941,1.6907563 C5.62352941,0.820168067 6.4302521,0.0302521008 7.31428571,0.0302521008 L16.2117647,0.0302521008 Z M15.1563025,1.49243697 L7.31428571,1.49243697 C7.22689076,1.49243697 7.08907563,1.62352941 7.08235294,1.69411765 L7.08235294,7.93613445 L14.7193277,7.93613445 C16.3226891,7.93613445 17.6235294,9.24369748 17.6235294,10.8470588 L17.6235294,15.7613445 C17.6235294,17.3647059 16.3193277,18.6722689 14.7193277,18.6722689 L7.12268908,18.6722689 L7.08235294,22.0067227 C7.08235294,22.0672269 7.20336134,22.1983193 7.31428571,22.1983193 L21.9327731,22.1983193 C22.0504202,22.1983193 22.1647059,22.0840336 22.1647059,21.9966387 L22.1647059,8.27563025 L19.3915966,8.27563025 C18.1747899,8.27563025 17.1226891,7.8789916 16.3495798,7.13277311 C15.5697479,6.37983193 15.1563025,5.34789916 15.1563025,4.15462185 L15.1563025,1.49243697 Z M14.7193277,9.39495798 L2.90420168,9.39495798 C2.10420168,9.39495798 1.45546219,10.0470588 1.45546219,10.8470588 L1.45546219,15.7613445 C1.45546219,16.5613445 2.10420168,17.2134454 2.90420168,17.2134454 L14.7193277,17.2134454 C15.5193277,17.2134454 16.1680672,16.5613445 16.1680672,15.7613445 L16.1680672,10.8470588 C16.1680672,10.0470588 15.5193277,9.39495798 14.7193277,9.39495798 Z M8.59159664,11.1563025 C9.43529412,11.1563025 9.99663866,11.287395 10.3663866,11.6571429 C10.7226891,12.0067227 10.907563,12.5613445 10.907563,13.3613445 C10.907563,14.1680672 10.7327731,14.7260504 10.3663866,15.102521 C10.0336134,15.4420168 9.52268908,15.6033613 8.72941176,15.6033613 L7.22016807,15.6033613 L7.22016807,11.1563025 L8.59159664,11.1563025 Z M4.71932773,11.1563025 C5.41512605,11.1563025 5.85546219,11.2537815 6.14117647,11.5193277 C6.38319328,11.7411765 6.49747899,12.0840336 6.49747899,12.5579832 C6.49747899,13.0319328 6.38655462,13.3915966 6.16470588,13.6369748 C5.90588235,13.9294118 5.50252101,14.0672269 4.91764706,14.0672269 L4.20168067,14.0672269 L4.20168067,15.6 L3.19327731,15.6 L3.19327731,11.1563025 L4.71932773,11.1563025 Z M14.6117647,11.1563025 L14.5344538,11.8890756 L12.6957983,11.8890756 L12.6957983,12.9680672 L14.1512605,12.9680672 L14.1512605,13.7277311 L12.6957983,13.7277311 L12.6957983,15.6 L11.6806723,15.6 L11.6806723,11.1563025 L14.6117647,11.1563025 Z M8.54453782,11.8991597 L8.23193277,11.8991597 L8.23193277,14.8638655 L8.66218487,14.8638655 C9.11596639,14.8638655 9.44201681,14.7260504 9.61680672,14.4672269 C9.79159664,14.2084034 9.85210084,13.9092437 9.85210084,13.3613445 C9.85210084,12.7226891 9.75462185,12.4235294 9.5394958,12.1915966 C9.33781513,11.9764706 9.03865546,11.8991597 8.54453782,11.8991597 Z M4.6789916,11.892437 L4.20504202,11.892437 L4.20504202,13.3109244 L4.70588235,13.3109244 L4.70588235,13.307563 C5.03193277,13.307563 5.16638655,13.2605042 5.29747899,13.1394958 C5.41512605,13.0218487 5.47226891,12.8336134 5.47226891,12.5747899 C5.47226891,12.3361345 5.42184874,12.1579832 5.30420168,12.0470588 C5.17983193,11.9361345 4.99159664,11.892437 4.6789916,11.892437 Z M16.6151261,2.03361345 L16.6151261,4.1512605 C16.6151261,4.94117647 16.8739496,5.60672269 17.3613445,6.08067227 C17.8588235,6.56134454 18.5579832,6.81344538 19.3915966,6.81344538 L21.549,6.8132521 L16.6151261,2.03361345 Z" id="Documento_Archivo-PDF_2Regular"></path>
        </g>
    </g>
</svg>

<svg width="24" height="24" viewBox="0 0 24 24" xmlns="http://www.w3.org/2000/svg"><path d="M16.212.03c.275 0 .534.104.733.293l6.36 6.158c.13.127.208.292.261.464a.735.735 0 01.058.285v14.767c0 .9-.774 1.66-1.691 1.66H7.314c-.9 0-1.69-.776-1.69-1.66l.04-3.325h-2.76A2.913 2.913 0 010 15.762v-4.915a2.913 2.913 0 012.904-2.91h2.72V1.69c0-.87.806-1.66 1.69-1.66h8.898zm-1.056 1.462H7.314c-.087 0-.225.132-.232.202v6.242h7.637a2.91 2.91 0 012.905 2.911v4.914a2.913 2.913 0 01-2.905 2.911H7.123l-.04 3.335c0 .06.12.191.231.191h14.619c.117 0 .232-.114.232-.201V8.276h-2.773c-1.217 0-2.27-.397-3.042-1.143-.78-.753-1.194-1.785-1.194-2.978V1.492zm-.437 7.903H2.904c-.8 0-1.449.652-1.449 1.452v4.914c0 .8.65 1.452 1.45 1.452h11.814c.8 0 1.45-.652 1.45-1.452v-4.914c0-.8-.65-1.452-1.45-1.452zm-6.127 1.761c.843 0 1.405.131 1.774.501.357.35.542.904.542 1.704 0 .807-.175 1.365-.542 1.742-.332.339-.843.5-1.637.5H7.22v-4.447h1.372zm-3.873 0c.696 0 1.136.098 1.422.363.242.222.356.565.356 1.039s-.11.834-.332 1.079c-.26.292-.662.43-1.247.43h-.716V15.6H3.193v-4.444H4.72zm9.893 0l-.078.733h-1.838v1.08h1.455v.759h-1.455V15.6H11.68v-4.444h2.93zm-6.067.743h-.313v2.965h.43c.454 0 .78-.138.955-.397.175-.259.235-.558.235-1.106 0-.638-.097-.937-.313-1.17-.201-.215-.5-.292-.994-.292zm-3.866-.007h-.474v1.419h.5v-.003c.327 0 .461-.047.592-.169.118-.117.175-.305.175-.564 0-.239-.05-.417-.168-.528-.124-.11-.312-.155-.625-.155zm11.936-9.858V4.15c0 .79.259 1.456.746 1.93.498.48 1.197.732 2.03.732h2.158l-4.934-4.78z" fill="#5CB615" fill-rule="nonzero"/></svg>
